!! 00049] TT[KA
!! NN
!!!OTL: Nao yuanxiao
!!!ARE: Asia, China, Shanxi, Qitai
!! Ethnic Group: Han
!! I, 276
!!!SCT: C0071
!!!YEM: Copyright 1995, estate of Helmut Schaffrath.
**kern
*ICvox
*Ivox
*M2/4
*k[b-e-]
*B-:
{8r
8ccc
8ccc
8ccc
=1
8gg
8fff
16ddd
16fff
[8ccc
=2
8ccc]
8gg
8bb-
8ccc
=3
16bb-
16ccc
4gg}
{8fff
=4
8ddd
8fff
8ccc
8gg
=5
4bb-
8ccc
16gg
16ccc
=6
8.ff
16dd
4cc}
=7
{8.ff
16dd
4cc
=8
8r
4gg
8bb-
=9
4ccc
8gg
8ccc
=10
8.ff
16dd
4cc}
=11
{8fff
16ddd
16fff
4ccc
=12
16ee-
16ff
16ee-
16ff
4gg}
=13
{8gg
8gg
8ccc
8ccc
=14
8gg
8bb-
8bb-
16gg
16ff
=15
8ee-
8cc
8ee-
8ff
=16
4gg
4ccc}
=17
{8.ee-
16ff
8.ee-
16ff
=18
8gg
8gg
8bb-
8dd
=19
2cc}
=20
{8gg
8gg
8ccc
8ccc
=21
8gg
8bb-
8bb-
16gg
16ff
=22
8ee-
8cc
8ee-
8ff
=23
4gg
4ccc}
=24
{8.bb-
16ccc
8bb-
8ccc
=25
8fff
8ggg
8eee-
8ddd
=26
2ccc}
==
!!!AGN: Wuge, Yangge, Jinzhong yangge. Xin minge
!! neues Volkslied
!!    In der 2. Strophe wird der Text der 3 letzten Takte auf folgende
!!    Noten wiederholt: +1_.+2+1_+2_  +5_+6_+4_+3_  +2___
!!!ONB: ESAC (Essen Associative Code) Database: CHINA
!!!AMT: simple duple
!!!AIN: vox
!!!EED: Helmut Schaffrath
!!!EEV: 1.0
*-
!!!ONB: Tied note syntax fixed by Craig Sapp, 2004/05/03/
